X:1
T:Headlands March
H:was Anon001
S:Gina Holland, March 2002
N:Often in A
M:4/4
L:1/4
R:March
Q:1/2=110
K:G
d>c | c B A G | GG | E G c e |\
d3 e/f/ | g>f e g | e d c B | B>A G B | A3 |]
